X:127
T: Et wohnt sich ein Weibsbild (2-7), S. 15
N: K1101
O: Luxemburg
S: KINTZELE, Guillaume: An der Ucht, Bd. 2, Luxemburg 1927]
N: in der Quelle mit einer 2. Stimme versehen
R: Spottlied]
M: 3/4
L: 1/16
K: F
F4 | F4C4A4 | A4F4c3c | c6B2A4 | A4G4
F4 | F4C4A4 | A4F4c3c | c6B2A4 | A4G4
d3d | c3cc3FF3F | F4E4
d3d | c3cc3FF3F | F4E4
F3A | c3cc3cd3d | c4c4A3A | B4B4d4 | c8
A3A | c4c4B4 | A8

@@@ Tune index: 8181
